Simply-Orange-Circles/scalable/apps/libreoffice-writer.svg

<?xml version="1.0" encoding="UTF-8" standalone="no"?>
<svg
   xmlns:dc="http://purl.org/dc/elements/1.1/"
   xmlns:cc="http://creativecommons.org/ns#"
   xmlns:rdf="http://www.w3.org/1999/02/22-rdf-syntax-ns#"
   xmlns:svg="http://www.w3.org/2000/svg"
   xmlns="http://www.w3.org/2000/svg"
   xmlns:sodipodi="http://sodipodi.sourceforge.net/DTD/sodipodi-0.dtd"
   xmlns:inkscape="http://www.inkscape.org/namespaces/inkscape"
   width="48"
   height="48"
   viewBox="0 0 12.7 12.7"
   version="1.1"
   id="svg4"
   sodipodi:docname="libreoffice-writer.svg"
   inkscape:version="0.92.4 (5da689c313, 2019-01-14)">
  <metadata
     id="metadata10">
    <rdf:RDF>
      <cc:Work
         rdf:about="">
        <dc:format>image/svg+xml</dc:format>
        <dc:type
           rdf:resource="http://purl.org/dc/dcmitype/StillImage" />
        <dc:title></dc:title>
      </cc:Work>
    </rdf:RDF>
  </metadata>
  <defs
     id="defs8" />
  <sodipodi:namedview
     pagecolor="#ffffff"
     bordercolor="#666666"
     borderopacity="1"
     objecttolerance="10"
     gridtolerance="10"
     guidetolerance="10"
     inkscape:pageopacity="0"
     inkscape:pageshadow="2"
     inkscape:window-width="1087"
     inkscape:window-height="480"
     id="namedview6"
     showgrid="false"
     inkscape:zoom="4.9166667"
     inkscape:cx="2.1355932"
     inkscape:cy="24"
     inkscape:window-x="0"
     inkscape:window-y="25"
     inkscape:window-maximized="0"
     inkscape:current-layer="svg4" />
  <path
     d="m 6.344,0.073 a 6.29,6.29 0 0 0 -6.29,6.29 6.29,6.29 0 0 0 6.29,6.288 6.29,6.29 0 0 0 6.29,-6.289 6.29,6.29 0 0 0 -6.29,-6.29 z M 6.326,1.009 A 5.407,5.407 0 0 1 11.733,6.416 5.407,5.407 0 0 1 6.326,11.823 5.407,5.407 0 0 1 0.92,6.416 5.407,5.407 0 0 1 6.326,1.01 Z M 3.24,3.003 c -0.327,0 -0.591,0.159 -0.591,0.355 0,0.197 0.264,0.355 0.591,0.355 h 2.176 c 0.327,0 0.59,-0.158 0.59,-0.355 0,-0.196 -0.263,-0.355 -0.59,-0.355 z m 6.621,1.245 a 0.377,0.377 0 0 0 -0.267,0.11 l -0.573,0.571 1.25,1.248 0.572,-0.57 a 0.377,0.377 0 0 0 0,-0.534 L 10.129,4.359 A 0.377,0.377 0 0 0 9.861,4.249 Z m -6.62,0.343 c -0.328,0 -0.592,0.158 -0.592,0.355 0,0.196 0.264,0.354 0.591,0.354 h 2.176 c 0.327,0 0.59,-0.158 0.59,-0.354 0,-0.197 -0.263,-0.355 -0.59,-0.355 H 3.24 Z M 8.755,5.196 5.31,8.634 6.56,9.88 10.003,6.444 8.753,5.195 Z M 3.24,6.178 c -0.327,0 -0.591,0.159 -0.591,0.355 0,0.197 0.264,0.355 0.591,0.355 h 2.176 c 0.327,0 0.59,-0.158 0.59,-0.355 0,-0.196 -0.263,-0.355 -0.59,-0.355 z M 5.041,8.9 4.773,10.414 6.291,10.149 5.04,8.9 Z"
     id="path2"
     inkscape:connector-curvature="0"
     style="fill:#ff7f2a" />
</svg>

<svg xmlns="http://www.w3.org/2000/svg" width="48" height="48" viewBox="0 0 12.7 12.7"><path fill="#ff7f2a" d="M6.34.07a6.29 6.29 0 0 0-6.29 6.3 6.29 6.29 0 0 0 6.3 6.28 6.29 6.29 0 0 0 6.28-6.29A6.29 6.29 0 0 0 6.34.07zm-.01.94a5.4 5.4 0 0 1 5.4 5.4 5.4 5.4 0 0 1-5.4 5.41 5.4 5.4 0 0 1-5.41-5.4A5.4 5.4 0 0 1 6.32 1zM3.24 3c-.33 0-.6.15-.6.35 0 .2.27.35.6.35h2.18c.32 0 .59-.15.59-.35 0-.2-.27-.36-.6-.36H3.25zm6.62 1.24a.38.38 0 0 0-.27.1l-.57.58 1.25 1.25.57-.57a.38.38 0 0 0 0-.54l-.71-.71a.38.38 0 0 0-.27-.11zm-6.62.34c-.33 0-.6.16-.6.36 0 .2.27.35.6.35h2.18c.32 0 .59-.16.59-.35 0-.2-.27-.36-.6-.36H3.25zm5.52.6L5.3 8.64l1.25 1.25L10 6.44 8.75 5.2zm-5.52.99c-.33 0-.6.16-.6.35 0 .2.27.36.6.36h2.18c.32 0 .59-.16.59-.36 0-.2-.27-.35-.6-.35H3.25zm1.8 2.72l-.27 1.51 1.52-.26L5.04 8.9z"/></svg>
